X: 369
M:4/4
L:1/4
K:G
dg | fe/d/ e f/d/ | ^cB/A/ d/A/d/f/ | e/A/e/g/ f/A/d/f/ | e/A/e/f/Bg | fe/d/^c>B | B2Be | dc/B/AB/G/ |

